packages/core/src/svgs/tokens/branded/DVPN.svg

<svg width="24" height="24" viewBox="0 0 24 24" fill="none" xmlns="http://www.w3.org/2000/svg">
<path d="M2.66675 2H21.3335V11.6866C21.3335 16.7534 17.1535 22 12.0001 22C6.84676 22 2.66675 16.7534 2.66675 11.6866V2Z" fill="#162C51"/>
<path fill-rule="evenodd" clip-rule="evenodd" d="M21.3335 2.06H2.66675V11.6933C2.66675 16.7201 6.84676 21.9401 12.0001 21.9401C17.1535 21.9401 21.3335 16.7201 21.3335 11.6933V2.06ZM20.6668 2.66667H3.33341V11.7067C3.33341 16.4401 7.21343 21.3334 12.0001 21.3334C16.7867 21.3334 20.6668 16.4334 20.6668 11.7067V2.66667Z" fill="#07B3F5"/>
<path d="M18.6666 4.66669H5.33325V8.37998L15.8065 15.6267L15.0599 16.26L5.33325 9.70672V11.7734C5.33325 15.4867 8.31993 19.3335 11.9999 19.3335C15.6533 19.3335 18.6199 15.5468 18.6666 11.8601L9.51321 5.60002H11.2733L18.6666 10.7401V4.66669Z" fill="#07B3F5"/>
</svg>

<svg xmlns="http://www.w3.org/2000/svg" width="24" height="24" fill="none" viewBox="0 0 24 24">
    <path fill="#162C51" d="M2.667 2h18.667v9.687C21.334 16.753 17.154 22 12 22c-5.153 0-9.333-5.247-9.333-10.313z"/>
    <path fill="#07B3F5" fill-rule="evenodd" d="M21.334 2.06H2.666v9.633c0 5.027 4.18 10.247 9.333 10.247s9.334-5.22 9.334-10.247zm-.667.607H3.333v9.04c0 4.733 3.88 9.626 8.667 9.626s8.667-4.9 8.667-9.626z" clip-rule="evenodd"/>
    <path fill="#07B3F5" d="M18.667 4.667H5.333V8.38l10.474 7.247-.747.633-9.727-6.553v2.066c0 3.714 2.987 7.56 6.667 7.56 3.653 0 6.62-3.786 6.667-7.473L9.513 5.6h1.76l7.394 5.14z"/>
</svg>
